Newaita-dark/mimetypes/16/model.svg

<svg height="16pt" viewBox="0 0 16 16" width="16pt" xmlns="http://www.w3.org/2000/svg" xmlns:xlink="http://www.w3.org/1999/xlink"><linearGradient id="a"><stop offset="0" stop-opacity=".27451"/><stop offset="1" stop-opacity="0"/></linearGradient><linearGradient id="b" gradientUnits="userSpaceOnUse" x1="8.269022" x2="8.269022" xlink:href="#a" y1="14.0169675" y2="14.67848943751"/><linearGradient id="c"><stop offset="0" stop-opacity=".313725"/><stop offset=".222222" stop-opacity=".27451"/><stop offset="1" stop-opacity="0"/></linearGradient><radialGradient id="d" cx="450.90894" cy="189.57936" gradientTransform="matrix(.00000009 -.0390662 -.0703192 -.00000005 24.742284 31.797667)" gradientUnits="userSpaceOnUse" r="21.166656" xlink:href="#c"/><radialGradient id="e" cx="450.90894" cy="189.57936" gradientTransform="matrix(-.00000009 .0390662 .0703192 .00000005 -9.196526 -3.763739)" gradientUnits="userSpaceOnUse" r="21.166656" xlink:href="#c"/><radialGradient id="f" cx="450.90894" cy="189.57936" gradientTransform="matrix(-.00000009 -.0390662 .0703192 -.00000005 -9.196526 31.797667)" gradientUnits="userSpaceOnUse" r="21.166656" xlink:href="#c"/><radialGradient id="g" cx="450.90894" cy="189.57936" gradientTransform="matrix(.00000009 .0390662 -.0703192 .00000005 24.742283 -3.76374)" gradientUnits="userSpaceOnUse" r="21.166656" xlink:href="#c"/><linearGradient id="h" gradientUnits="userSpaceOnUse" x1="7.7728788" x2="7.7728788" y1="14.01696629816" y2="1.44805523664"><stop offset="0" stop-color="#616161"/><stop offset="1" stop-color="#757575"/></linearGradient><linearGradient id="i" gradientTransform="matrix(.0149471 0 0 .0546927 7.521211 -8.263145)" gradientUnits="userSpaceOnUse" x1="249.18942" x2="249.18942" xlink:href="#a" y1="233.5" y2="254.66669"/><linearGradient id="j"><stop offset="0" stop-color="#424242"/><stop offset="1" stop-color="#616161"/></linearGradient><linearGradient id="k" gradientUnits="userSpaceOnUse" x1="10.58434912498" x2="10.58434912498" xlink:href="#j" y1="14.0169675" y2="1.44805256249"/><linearGradient id="l" gradientUnits="userSpaceOnUse" x1="960.000112" x2="960.000112" xlink:href="#j" y1="1695.118218" y2="175.11802806824"/><path d="m3.96875 14.015625h7.609375v.664063h-7.609375zm0 0" fill="url(#b)"/><path d="m11.578125 14.015625h1.320313v-.660156h-1.320313zm0 0" fill="url(#d)"/><path d="m3.96875 14.015625h-1.324219v.664063h1.324219zm0 0" fill="url(#e)"/><path d="m3.96875 14.015625h-1.324219v-.660156h1.324219zm0 0" fill="url(#f)"/><path d="m11.578125 14.015625h1.320313v.664063h-1.320313zm0 0" fill="url(#g)"/><path d="m9.269531 1.449219h-5.960937c-.367188 0-.664063.292969-.664063.660156v11.246094c0 .367187.296875.660156.664063.660156h8.929687c.367188 0 .660157-.292969.660157-.660156v-8.277344zm0 0" fill="url(#h)"/><path d="m9.261719 4.507812h3.140625l.496094.496094v.660156h-3.636719zm0 0" fill="url(#i)"/><path d="m2.644531 13.097656v.257813c0 .367187.296875.660156.664063.660156h8.929687c.367188 0 .660157-.292969.660157-.660156v-.257813c0 .367188-.292969.664063-.660157.664063h-8.929687c-.367188 0-.664063-.296875-.664063-.664063zm0 0" fill-opacity=".235294"/><path d="m3.308594 1.449219c-.367188 0-.664063.292969-.664063.660156v.25c0-.367187.296875-.664063.664063-.664063h5.960937l3.628907 3.628907v-.246094l-3.628907-3.628906zm0 0" fill="#fff" fill-opacity=".313725"/><path d="m12.898438 5.078125-3.628907-3.628906v2.964843c0 .367188.296875.664063.664063.664063zm0 0" fill="url(#k)"/><path d="m9.269531 4.257812v.15625c0 .367188.296875.664063.664063.664063h2.964844l-.15625-.15625h-2.808594c-.367188 0-.664063-.296875-.664063-.664063zm0 0" fill-opacity=".235294"/><path d="m9.269531 1.449219v.246093l3.382813 3.382813h.246094zm0 0" fill="#fff" fill-opacity=".392157"/><path d="m9.269531 1.402344c-.023437 0-.046875.019531-.046875.046875v2.964843c0 .394532.316406.710938.710938.710938h2.964844c.019531 0 .039062-.011719.042968-.03125.007813-.015625.003906-.035156-.007812-.050781l-3.628906-3.628907c-.007813-.007812-.023438-.011718-.035157-.011718zm.046875.160156 3.46875 3.46875h-2.851562c-.34375 0-.617188-.273438-.617188-.617188zm0 0" fill="#212121"/><path d="m3.308594 1.402344c-.394532 0-.710938.316406-.710938.707031v11.246094c0 .390625.316406.707031.710938.707031h8.929687c.390625 0 .707031-.316406.707031-.707031v-8.277344c0-.015625-.003906-.027344-.011718-.035156l-3.628906-3.628907c-.007813-.007812-.019532-.011718-.035157-.011718zm0 .09375h5.941406l3.601562 3.601562v8.257813c0 .339843-.273437.613281-.613281.613281h-8.929687c-.34375 0-.617188-.273438-.617188-.613281v-11.246094c0-.339844.273438-.613281.617188-.613281zm0 0" fill="#212121"/><path d="m619.783341 694.89428c-10.865104 0-19.840625 8.975521-19.840625 20.313021v119.988543c0 10.865104 8.975521 19.840625 19.840625 19.840625h40.153646c11.337501 0 19.840626-8.975521 19.840626-19.840625v-59.994272h100.147918c11.3375 0 19.840625-8.975521 19.840625-20.313021v-39.68125c0-11.3375-8.503125-20.313021-19.840625-20.313021zm480.426569 0c-11.3375 0-20.313021 8.975521-20.313021 20.313021v39.68125c0 11.3375 8.975521 20.313021 20.313021 20.313021h99.675522v59.994272c0 10.865104 8.975521 19.840625 20.313021 19.840625h39.68125c11.337501 0 20.313021-8.975521 20.313021-19.840625v-119.988543c0-11.3375-8.97552-20.313021-20.313021-20.313021zm-480.426569 400.119275c-10.865104 0-19.840625 8.975521-19.840625 20.313022v119.988543c0 10.865104 8.975521 19.840625 19.840625 19.840625h160.14219c11.3375 0 19.840625-8.975521 19.840625-19.840625v-40.153647c0-11.3375-8.503125-19.840625-19.840625-19.840625h-100.147918v-59.994271c0-11.337501-8.503125-20.313022-19.840626-20.313022zm600.415112 0c-11.3375 0-20.313021 8.975521-20.313021 20.313022v59.994271h-99.675522c-11.3375 0-20.313021 8.503125-20.313021 19.840625v40.153647c0 10.865104 8.975521 19.840625 20.313021 19.840625h159.669793c11.337501 0 20.313021-8.975521 20.313021-19.840625v-119.988543c0-11.337501-8.97552-20.313022-20.313021-20.313022zm0 0" fill="url(#l)" stroke="#212121" stroke-linecap="round" stroke-linejoin="round" stroke-width="11.338583" transform="scale(.00826902)"/></svg>

<?xml version="1.0" encoding="UTF-8"?>
<svg xmlns="http://www.w3.org/2000/svg" xmlns:xlink="http://www.w3.org/1999/xlink" width="16pt" height="16pt" viewBox="0 0 16 16" version="1.1">
<defs>
<linearGradient id="linear0" gradientUnits="userSpaceOnUse" x1="254" y1="233.5" x2="254" y2="254.66667" gradientTransform="matrix(0.031253,0,0,0.031253,0.33076,6.719392)">
<stop offset="0" style="stop-color:rgb(0%,0%,0%);stop-opacity:0.27451;"/>
<stop offset="1" style="stop-color:rgb(0%,0%,0%);stop-opacity:0;"/>
</linearGradient>
<radialGradient id="radial0" gradientUnits="userSpaceOnUse" cx="450.90894" cy="189.57936" fx="450.90894" fy="189.57936" r="21.166656" gradientTransform="matrix(0.0000000870852,-0.0390662,-0.0703192,-0.0000000507693,24.742284,31.797667)">
<stop offset="0" style="stop-color:rgb(0%,0%,0%);stop-opacity:0.313725;"/>
<stop offset="0.222222" style="stop-color:rgb(0%,0%,0%);stop-opacity:0.27451;"/>
<stop offset="1" style="stop-color:rgb(0%,0%,0%);stop-opacity:0;"/>
</radialGradient>
<radialGradient id="radial1" gradientUnits="userSpaceOnUse" cx="450.90894" cy="189.57936" fx="450.90894" fy="189.57936" r="21.166656" gradientTransform="matrix(-0.0000000870852,0.0390662,0.0703192,0.0000000507693,-9.196526,-3.763739)">
<stop offset="0" style="stop-color:rgb(0%,0%,0%);stop-opacity:0.313725;"/>
<stop offset="0.222222" style="stop-color:rgb(0%,0%,0%);stop-opacity:0.27451;"/>
<stop offset="1" style="stop-color:rgb(0%,0%,0%);stop-opacity:0;"/>
</radialGradient>
<radialGradient id="radial2" gradientUnits="userSpaceOnUse" cx="450.90894" cy="189.57936" fx="450.90894" fy="189.57936" r="21.166656" gradientTransform="matrix(-0.0000000870852,-0.0390662,0.0703192,-0.0000000507693,-9.196526,31.797667)">
<stop offset="0" style="stop-color:rgb(0%,0%,0%);stop-opacity:0.313725;"/>
<stop offset="0.222222" style="stop-color:rgb(0%,0%,0%);stop-opacity:0.27451;"/>
<stop offset="1" style="stop-color:rgb(0%,0%,0%);stop-opacity:0;"/>
</radialGradient>
<radialGradient id="radial3" gradientUnits="userSpaceOnUse" cx="450.90894" cy="189.57936" fx="450.90894" fy="189.57936" r="21.166656" gradientTransform="matrix(0.0000000870852,0.0390662,-0.0703192,0.0000000507693,24.742283,-3.76374)">
<stop offset="0" style="stop-color:rgb(0%,0%,0%);stop-opacity:0.313725;"/>
<stop offset="0.222222" style="stop-color:rgb(0%,0%,0%);stop-opacity:0.27451;"/>
<stop offset="1" style="stop-color:rgb(0%,0%,0%);stop-opacity:0;"/>
</radialGradient>
<linearGradient id="linear1" gradientUnits="userSpaceOnUse" x1="940" y1="1695.1182" x2="940" y2="175.11812" gradientTransform="matrix(0.00826902,0,0,0.00826902,0,0)">
<stop offset="0" style="stop-color:rgb(38.039216%,38.039216%,38.039216%);stop-opacity:1;"/>
<stop offset="1" style="stop-color:rgb(45.882353%,45.882353%,45.882353%);stop-opacity:1;"/>
</linearGradient>
<linearGradient id="linear2" gradientUnits="userSpaceOnUse" x1="249.18942" y1="233.5" x2="249.18942" y2="254.66669" gradientTransform="matrix(0.0149471,0,0,0.0546927,7.521211,-8.263145)">
<stop offset="0" style="stop-color:rgb(0%,0%,0%);stop-opacity:0.27451;"/>
<stop offset="1" style="stop-color:rgb(0%,0%,0%);stop-opacity:0;"/>
</linearGradient>
<linearGradient id="linear3" gradientUnits="userSpaceOnUse" x1="338.66666" y1="233.5" x2="338.66666" y2="-168.66667" gradientTransform="matrix(0.031253,0,0,0.031253,0,6.719392)">
<stop offset="0" style="stop-color:rgb(25.882353%,25.882353%,25.882353%);stop-opacity:1;"/>
<stop offset="1" style="stop-color:rgb(38.039216%,38.039216%,38.039216%);stop-opacity:1;"/>
</linearGradient>
<linearGradient id="linear4" gradientUnits="userSpaceOnUse" x1="254" y1="233.5" x2="254" y2="-168.66667" gradientTransform="matrix(3.779528,0,0,3.779528,0,812.59843)">
<stop offset="0" style="stop-color:rgb(25.882353%,25.882353%,25.882353%);stop-opacity:1;"/>
<stop offset="1" style="stop-color:rgb(38.039216%,38.039216%,38.039216%);stop-opacity:1;"/>
</linearGradient>
</defs>
<g id="surface1">
<path style=" stroke:none;fill-rule:nonzero;fill:url(#linear0);" d="M 3.96875 14.015625 L 11.578125 14.015625 L 11.578125 14.679688 L 3.96875 14.679688 Z M 3.96875 14.015625 "/>
<path style=" stroke:none;fill-rule:nonzero;fill:url(#radial0);" d="M 11.578125 14.015625 L 12.898438 14.015625 L 12.898438 13.355469 L 11.578125 13.355469 Z M 11.578125 14.015625 "/>
<path style=" stroke:none;fill-rule:nonzero;fill:url(#radial1);" d="M 3.96875 14.015625 L 2.644531 14.015625 L 2.644531 14.679688 L 3.96875 14.679688 Z M 3.96875 14.015625 "/>
<path style=" stroke:none;fill-rule:nonzero;fill:url(#radial2);" d="M 3.96875 14.015625 L 2.644531 14.015625 L 2.644531 13.355469 L 3.96875 13.355469 Z M 3.96875 14.015625 "/>
<path style=" stroke:none;fill-rule:nonzero;fill:url(#radial3);" d="M 11.578125 14.015625 L 12.898438 14.015625 L 12.898438 14.679688 L 11.578125 14.679688 Z M 11.578125 14.015625 "/>
<path style=" stroke:none;fill-rule:nonzero;fill:url(#linear1);" d="M 9.269531 1.449219 L 3.308594 1.449219 C 2.941406 1.449219 2.644531 1.742188 2.644531 2.109375 L 2.644531 13.355469 C 2.644531 13.722656 2.941406 14.015625 3.308594 14.015625 L 12.238281 14.015625 C 12.605469 14.015625 12.898438 13.722656 12.898438 13.355469 L 12.898438 5.078125 Z M 9.269531 1.449219 "/>
<path style=" stroke:none;fill-rule:nonzero;fill:url(#linear2);" d="M 9.261719 4.507812 L 12.402344 4.507812 L 12.898438 5.003906 L 12.898438 5.664062 L 9.261719 5.664062 Z M 9.261719 4.507812 "/>
<path style=" stroke:none;fill-rule:nonzero;fill:rgb(0%,0%,0%);fill-opacity:0.235294;" d="M 2.644531 13.097656 L 2.644531 13.355469 C 2.644531 13.722656 2.941406 14.015625 3.308594 14.015625 L 12.238281 14.015625 C 12.605469 14.015625 12.898438 13.722656 12.898438 13.355469 L 12.898438 13.097656 C 12.898438 13.464844 12.605469 13.761719 12.238281 13.761719 L 3.308594 13.761719 C 2.941406 13.761719 2.644531 13.464844 2.644531 13.097656 Z M 2.644531 13.097656 "/>
<path style=" stroke:none;fill-rule:nonzero;fill:rgb(100%,100%,100%);fill-opacity:0.313725;" d="M 3.308594 1.449219 C 2.941406 1.449219 2.644531 1.742188 2.644531 2.109375 L 2.644531 2.359375 C 2.644531 1.992188 2.941406 1.695312 3.308594 1.695312 L 9.269531 1.695312 L 12.898438 5.324219 L 12.898438 5.078125 L 9.269531 1.449219 Z M 3.308594 1.449219 "/>
<path style=" stroke:none;fill-rule:nonzero;fill:url(#linear3);" d="M 12.898438 5.078125 L 9.269531 1.449219 L 9.269531 4.414062 C 9.269531 4.78125 9.566406 5.078125 9.933594 5.078125 Z M 12.898438 5.078125 "/>
<path style=" stroke:none;fill-rule:nonzero;fill:rgb(0%,0%,0%);fill-opacity:0.235294;" d="M 9.269531 4.257812 L 9.269531 4.414062 C 9.269531 4.78125 9.566406 5.078125 9.933594 5.078125 L 12.898438 5.078125 L 12.742188 4.921875 L 9.933594 4.921875 C 9.566406 4.921875 9.269531 4.625 9.269531 4.257812 Z M 9.269531 4.257812 "/>
<path style=" stroke:none;fill-rule:nonzero;fill:rgb(100%,100%,100%);fill-opacity:0.392157;" d="M 9.269531 1.449219 L 9.269531 1.695312 L 12.652344 5.078125 L 12.898438 5.078125 Z M 9.269531 1.449219 "/>
<path style=" stroke:none;fill-rule:nonzero;fill:rgb(12.941176%,12.941176%,12.941176%);fill-opacity:1;" d="M 9.269531 1.402344 C 9.246094 1.402344 9.222656 1.421875 9.222656 1.449219 L 9.222656 4.414062 C 9.222656 4.808594 9.539062 5.125 9.933594 5.125 L 12.898438 5.125 C 12.917969 5.125 12.9375 5.113281 12.941406 5.09375 C 12.949219 5.078125 12.945312 5.058594 12.933594 5.042969 L 9.304688 1.414062 C 9.296875 1.40625 9.28125 1.402344 9.269531 1.402344 Z M 9.316406 1.5625 L 12.785156 5.03125 L 9.933594 5.03125 C 9.589844 5.03125 9.316406 4.757812 9.316406 4.414062 Z M 9.316406 1.5625 "/>
<path style=" stroke:none;fill-rule:nonzero;fill:rgb(12.941176%,12.941176%,12.941176%);fill-opacity:1;" d="M 3.308594 1.402344 C 2.914062 1.402344 2.597656 1.71875 2.597656 2.109375 L 2.597656 13.355469 C 2.597656 13.746094 2.914062 14.0625 3.308594 14.0625 L 12.238281 14.0625 C 12.628906 14.0625 12.945312 13.746094 12.945312 13.355469 L 12.945312 5.078125 C 12.945312 5.0625 12.941406 5.050781 12.933594 5.042969 L 9.304688 1.414062 C 9.296875 1.40625 9.285156 1.402344 9.269531 1.402344 Z M 3.308594 1.496094 L 9.25 1.496094 L 12.851562 5.097656 L 12.851562 13.355469 C 12.851562 13.695312 12.578125 13.96875 12.238281 13.96875 L 3.308594 13.96875 C 2.964844 13.96875 2.691406 13.695312 2.691406 13.355469 L 2.691406 2.109375 C 2.691406 1.769531 2.964844 1.496094 3.308594 1.496094 Z M 3.308594 1.496094 "/>
<path style="fill-rule:nonzero;fill:url(#linear4);stroke-width:11.338583;stroke-linecap:round;stroke-linejoin:round;stroke:rgb(12.941176%,12.941176%,12.941176%);stroke-opacity:1;stroke-miterlimit:4;" d="M 619.783341 694.89428 C 608.918237 694.89428 599.942716 703.869801 599.942716 715.207301 L 599.942716 835.195844 C 599.942716 846.060948 608.918237 855.036469 619.783341 855.036469 L 659.936987 855.036469 C 671.274488 855.036469 679.777613 846.060948 679.777613 835.195844 L 679.777613 775.201572 L 779.925531 775.201572 C 791.263031 775.201572 799.766156 766.226051 799.766156 754.888551 L 799.766156 715.207301 C 799.766156 703.869801 791.263031 694.89428 779.925531 694.89428 Z M 1100.20991 694.89428 C 1088.87241 694.89428 1079.896889 703.869801 1079.896889 715.207301 L 1079.896889 754.888551 C 1079.896889 766.226051 1088.87241 775.201572 1100.20991 775.201572 L 1199.885432 775.201572 L 1199.885432 835.195844 C 1199.885432 846.060948 1208.860953 855.036469 1220.198453 855.036469 L 1259.879703 855.036469 C 1271.217204 855.036469 1280.192724 846.060948 1280.192724 835.195844 L 1280.192724 715.207301 C 1280.192724 703.869801 1271.217204 694.89428 1259.879703 694.89428 Z M 619.783341 1095.013555 C 608.918237 1095.013555 599.942716 1103.989076 599.942716 1115.326577 L 599.942716 1235.31512 C 599.942716 1246.180224 608.918237 1255.155745 619.783341 1255.155745 L 779.925531 1255.155745 C 791.263031 1255.155745 799.766156 1246.180224 799.766156 1235.31512 L 799.766156 1195.161473 C 799.766156 1183.823973 791.263031 1175.320848 779.925531 1175.320848 L 679.777613 1175.320848 L 679.777613 1115.326577 C 679.777613 1103.989076 671.274488 1095.013555 659.936987 1095.013555 Z M 1220.198453 1095.013555 C 1208.860953 1095.013555 1199.885432 1103.989076 1199.885432 1115.326577 L 1199.885432 1175.320848 L 1100.20991 1175.320848 C 1088.87241 1175.320848 1079.896889 1183.823973 1079.896889 1195.161473 L 1079.896889 1235.31512 C 1079.896889 1246.180224 1088.87241 1255.155745 1100.20991 1255.155745 L 1259.879703 1255.155745 C 1271.217204 1255.155745 1280.192724 1246.180224 1280.192724 1235.31512 L 1280.192724 1115.326577 C 1280.192724 1103.989076 1271.217204 1095.013555 1259.879703 1095.013555 Z M 1220.198453 1095.013555 " transform="matrix(0.00826902,0,0,0.00826902,0,0)"/>
</g>
</svg>
